!!!!SEGMENT: pl-cz--iii-882--006_brykner-jerzy--completorium-c-in-manus-tuas.krn
!!!cenid: 17xx:866
!!!COM: Brykner, Jerzy
!!!COM-rismid: pe30025739
!!!CDT: 1705-1760
!!!CNT: Polish
!!!OPR: Completorium C
!!!OTL: In manus tuas
!!!OMV: 006
!!!PDT:
!!!AGN: Completorium
!!!SMS-siglum: PL-CZ
!!!SMS-shelfmark: III-882
!!!SMS-shelfwork: 001-006 M
!!!SMS-variant:
!!!SMS-altvar:
!!!NIFC-rismid: 300033576
!!!system-decoration: [(s1,s2,s3)][(s4,s5)]s6
!!!key:
**kern	**fba	**kern	**kern	**kern	**text	**kern	**text	**kern	**text
*part6	*part6	*part5	*part4	*part3	*part3	*part2	*part2	*part1	*part1
*staff6	*staff6	*staff5	*staff4	*staff3	*staff3	*staff2	*staff2	*staff1	*staff1
*Iorgan	*	*Ivioln	*Ivioln	*Ibass	*	*Ialto	*	*Ivox	*
*I"Organo.	*	*I"Violino Secundo.	*I"Violino Primo.	*I"Basso	*	*I"Alto	*	*I"Canto.	*
*I'Org.	*	*I'Vn II	*I'Vn I	*I'B.	*	*I'A.	*	*I'C.	*
*clefF4	*	*clefG2	*clefG2	*clefF4	*	*clefC3	*	*clefC1	*
*k[b-]	*	*k[b-]	*k[b-]	*k[b-]	*	*k[b-]	*	*k[b-]	*
*F:	*	*F:	*F:	*F:	*	*F:	*	*F:	*
*M4/4	*	*M4/4	*M4/4	*M4/4	*	*M4/4	*	*M4/4	*
*met(c)	*	*met(c)	*met(c)	*met(c)	*	*met(c)	*	*met(c)	*
=1	=1	=1	=1	=1	=1	=1	=1	=1	=1
*2\right	*	*2\right	*	*	*	*2\right	*	*2\right	*
!	!	!	!LO:TX:a:t=P:zródło niekompletne [brak głosu]:problem	!	!	!	!	!	!
!	!	!	!	!	!	!	!	!LO:SIC:o=I:v:t=w źródle 'I' znajduje się przed kluczem i oznaczeniem metrum	!
!LO:TX:a:Bi:t=In manus:problem:w źródle 'in manus' dopisane ołówkiem	!	!LO:TX:b:Bi:t=In manus tuas.	!	!	!	!	!	!LO:TX:a:Bi:t=Allegro	!
!LO:TX:a:Bi:t=Solo	!	!	!	!	!	!	!	!	!
8F\L	.	00r	1ryy	00r	.	2f\	In	2f/	In
8G\	.	.	.	.	.	.	.	.	.
8A\	.	.	.	.	.	.	.	.	.
8F\J	.	.	.	.	.	.	.	.	.
8C/L	4	.	.	.	.	4f\	ma-	[<2g/	ma-
.	3	.	.	.	.	.	.	.	.
8D/	.	.	.	.	.	.	.	.	.
8E/	.	.	.	.	.	4e\	-nus	.	.
8C/J	.	.	.	.	.	.	.	.	.
=2	=2	=2	=2	=2	=2	=2	=2	=2	=2
8F\L	9	.	1ryy	.	.	2.a\	tu-	4g/]	.
8G\	.	.	.	.	.	.	.	.	.
8A\	6	.	.	.	.	.	.	4f/	-nus
8F\J	.	.	.	.	.	.	.	.	.
!	!	!	!	!	!	!	!	!LO:TX:a:t=P:w źródle poprawki tekstowe skryptora:problem	!
8G\L	9	.	.	.	.	.	.	[>2b-\	Tu-
8A\	.	.	.	.	.	.	.	.	.
8B-\	6	.	.	.	.	8g\L	-as	.	.
!LO:TX:a:t=P:W źródle wytarty fragment belki:problem	!	!	!	!	!	!	!	!	!
8G\J	.	.	.	.	.	8f\J	.	.	.
=3	=3	=3	=3	=3	=3	=3	=3	=3	=3
8C/L	7 x	.	1ryy	.	.	8e\L	Do-	8b-\L]	.
8E/	.	.	.	.	.	8c\J	.	8g\J	.
8F/	.	.	.	.	.	2f\	.	8a\L	-as
8AA/J	.	.	.	.	.	.	.	8f\J	.
8BB-/L	6 5	.	.	.	.	.	.	4.g\	Do-
8GG/	.	.	.	.	.	.	.	.	.
8C/	.	.	.	.	.	4e\	-mi-	.	.
8CC/J	.	.	.	.	.	.	.	8g\	-mi-
=4	=4	=4	=4	=4	=4	=4	=4	=4	=4
!LO:TX:a:t=P:mixed beam:problem	!	!	!	!	!	!	!	!	!
8FF/L	.	.	1ryy	.	.	4f\	-ne	4f/	-ne
8F\	.	.	.	.	.	.	.	.	.
8A\	.	.	.	.	.	4r	.	4cc\	com-
8G\J	.	.	.	.	.	.	.	.	.
8F\L	.	.	.	.	.	2r	.	4a\	-men-
8E\	.	.	.	.	.	.	.	.	.
8F\	.	.	.	.	.	.	.	8g\L	-do
8D\J	.	.	.	.	.	.	.	8f\J	.
=5	=5	=5	=5	=5	=5	=5	=5	=5	=5
!LO:TX:a:t=P:mixed beam:problem	!	!	!	!	!	!	!	!	!
8GG/L	.	0r	1ryy	0r	.	4r	.	2.b-\	Spi-
8G\J	.	.	.	.	.	.	.	.	.
!LO:LB:g=original	!	!	!	!	!	!	!	!	!
8B-\L	.	.	.	.	.	4g\	com-	.	.
8G\J	.	.	.	.	.	.	.	.	.
8C/L	7	.	.	.	.	4e\	-men-	.	.
8E/	.	.	.	.	.	.	.	.	.
8F/	.	.	.	.	.	8d\L	-do	8a\	-ri-
8FF/J	.	.	.	.	.	8c\J	.	8a\	-tum
!	!	!	!	!	!	!LO:LB:g=original	!	!LO:LB:g=original	!
=6	=6	=6	=6	=6	=6	=6	=6	=6	=6
8C/L	.	.	1ryy	.	.	4e\	spi-	4g\	me-
8BB-/	.	.	.	.	.	.	.	.	.
8AA/	6	.	.	.	.	8f\	-ri-	4a\	.
8FF/J	.	.	.	.	.	8f\	-tum	.	.
8C/L	.	.	.	.	.	(>4f\	me-	2g\	.
8BB-/	4	.	.	.	.	.	.	.	.
8C/	3	.	.	.	.	4e\)	.	.	.
8CC/J	.	.	.	.	.	.	.	.	.
=7	=7	=7	=7	=7	=7	=7	=7	=7	=7
4FF/	.	4r	1ryy	4r	.	4f\	-um	4f/	-um,
!LO:TX:a:Bi:t=T.	!	!	!	!	!	!	!	!	!
8F\L	.	8aa\L	.	8F\L	In	8a\L	in	4cc\	in
8G\J	.	8bb-\J	.	8G\J	.	8g\J	.	.	.
8A\L	6	8ccc\L	.	4A\	ma-	4f\	ma-	4ff\	ma-
8G\	.	8bb-\	.	.	.	.	.	.	.
8A\	.	8ccc\	.	4F\	-nus	4a\	-nus	4cc\	-nus
8F\J	.	8aa\J	.	.	.	.	.	.	.
=8	=8	=8	=8	=8	=8	=8	=8	=8	=8
8B-\L	.	4.ddd\	1ryy	4.B-\	tu-	4b-\	tu-	4.dd\	tu-
8F\	.	.	.	.	.	.	.	.	.
8B-\	.	.	.	.	.	4f\	-as	.	.
8A\J	.	8ccc\	.	8A\	-as	.	.	8cc\	-as
8G\L	.	8bb-\L	.	8G\L	do-	4.g\	do-	8b-\L	Do-
8F\	.	8aa\	.	8F\	.	.	.	8a\J	.
8E\	.	8gg\	.	8E\J	.	.	.	4g\	-mi-
8D\J	.	8ff\J	.	8D/	-mi-	8f\	-mi-	.	.
=9	=9	=9	=9	=9	=9	=9	=9	=9	=9
4C/	.	4ee\	1ryy	4AA/	-ne	4e\	-ne	4a\	-ne
4AA/	6	4ccc\	.	4A\	com-	4a\	com-	4cc\	com-
8D\L	7	8ff\L	.	8D\L	-men-	4a\	-men-	8cc\L	-men-
8E\	.	8gg\	.	8E\J	.	.	.	16b-\L	.
.	.	.	.	.	.	.	.	16a\JJ	.
8F\	.	8aa\	.	8F\L	-do	4g\	-do	4b-\	-do
8G\J	.	8bb-\J	.	8G\J	.	.	.	.	.
=10	=10	=10	=10	=10	=10	=10	=10	=10	=10
8C/L	7	8.gg\L	1ryy	4C/	ſpi-	4g\	Spi-	4b-\	spi-
8E/	.	.	.	.	.	.	.	.	.
.	.	32aa\LL	.	.	.	.	.	.	.
.	.	32bb-\JJJ	.	.	.	.	.	.	.
8F/	.	8aa\L	.	8F\	-ri-	8f\	-ri-	8a\	-ri-
8FF/J	.	16gg\L	.	8F\	-tum	8f\	-tum	8a\	-tum
.	.	16ff\JJ	.	.	.	.	.	.	.
8C/L	4	2gg\	.	2C/	me	4f\	me-	2g\	me-
8BB-/	.	.	.	.	.	.	.	.	.
8C/	3	.	.	.	.	4e\	.	.	.
8CC/J	.	.	.	.	.	.	.	.	.
!LO:LB:g=original	!	!	!	!LO:PB:g=original	!	!	!	!	!
=11	=11	=11	=11	=11	=11	=11	=11	=11	=11
!	!	!	!	!LO:TX:a:t=P:źródło niekompletne [partia urywa]:problem	!	!	!	!	!
!LO:TX:a:t=P:mixed beam:problem	!	!	!	!	!	!	!	!	!
8FF/L	.	4ff\	1ryy	1ryy	.	4f\	-um.	4a\	-um.
!LO:TX:a:Bi:t=S.	!	!	!	!	!	!	!	!	!
8F\	.	.	.	.	.	.	.	.	.
8A\	.	4r	.	.	.	4r	.	4r	.
8G\J	.	.	.	.	.	.	.	.	.
!	!	!	!	!	!	!	!	!LO:TX:a:Bi:t=a	!
8F\L	.	2r	.	.	.	4.f\	re-	4.a\	re-
8E\	.	.	.	.	.	.	.	.	.
8F\	.	.	.	.	.	.	.	.	.
!LO:TX:a:t=P:W źródle wytarty fragment belki:problem	!	!	!	!	!	!	!	!	!
8D\J	.	.	.	.	.	8f\	-de-	8a\	-de-
!	!	!LO:LB:g=original	!	!	!	!LO:LB:g=original	!	!LO:LB:g=original	!
=12	=12	=12	=12	=12	=12	=12	=12	=12	=12
8G\L	n	0r	1ryy	1ryy	.	4d\	-mis-	4bn\	-mis-
8D\	.	.	.	.	.	.	.	.	.
8G\	.	.	.	.	.	8d\	-ti	8a\	-ti
8F\J	.	.	.	.	.	8d\	nos	8g\	nos
!	!	!	!	!	!	!LO:TX:a:t=P:W źródle grupa ósemkowa poprawiana przez skryptora:problem	!	!	!
8E\L	6	.	.	.	.	8g\	De-	8cc\	Do-
8C\	.	.	.	.	.	8e\	-us	8g\	-mi-
8D\	.	.	.	.	.	8f\	ve-	8cc\L	-ne
!LO:TX:a:t=P:W źródle wytarty fragment belki:problem	!	!	!	!	!	!	!	!	!
8E\J	5	.	.	.	.	8g\	-ri-	8bn\J	.
=13	=13	=13	=13	=13	=13	=13	=13	=13	=13
4F\	.	.	1ryy	1ryy	.	4a\	-ta-	8a\	De-
.	.	.	.	.	.	.	.	8bn\	-us
4E\	6	.	.	.	.	4g\	.	8cc\	ve-
.	.	.	.	.	.	.	.	8g\	-ri-
!	!	!	!	!	!	!LO:TX:a:t=P:w źródle następny takt skreślony; poprawki skryptora:problem	!	!	!
2D\	7	.	.	.	.	2f\	.	4cc\	-ta-
.	6\	.	.	.	.	.	.	4bn\	.
=14	=14	=14	=14	=14	=14	=14	=14	=14	=14
4C/	.	4r	1ryy	1ryy	.	4g\	-tis	4cc\	-tis,
4c\	.	4gg\	.	.	.	4g\	com-	4ee\	com-
4.A\	.	4.ccc\	.	.	.	4.b-\	-men-	8ee\L	-men-
.	.	.	.	.	.	.	.	16dd\L	.
.	.	.	.	.	.	.	.	16ee\JJ	.
.	.	.	.	.	.	.	.	8cc\L	.
16G\LL	.	16bb-\LL	.	.	.	16a\LL	.	8ee\J	.
16A\JJ	.	16ccc\JJ	.	.	.	16b-\JJ	.	.	.
=15	=15	=15	=15	=15	=15	=15	=15	=15	=15
8F\L	.	8aa\L	1ryy	1ryy	.	8a\L	.	8ff\L	.
16E\L	.	16gg\L	.	.	.	16g\L	.	8cc\J	.
16F\JJ	.	16aa\JJ	.	.	.	16a\JJ	.	.	.
8D\L	.	8ff\L	.	.	.	8f\L	.	4.dd\	.
16E\L	.	16gg\L	.	.	.	16g\L	.	.	.
16F\JJ	.	16aa\JJ	.	.	.	16a\JJ	.	.	.
4.G\	.	4.bb-\	.	.	.	4.b-\	.	.	.
.	.	.	.	.	.	.	.	16cc\LL	.
.	.	.	.	.	.	.	.	16dd\JJ	.
.	.	.	.	.	.	.	.	8b-\L	.
8F\	.	8aa\	.	.	.	8a\	.	8dd\J	.
=16	=16	=16	=16	=16	=16	=16	=16	=16	=16
8E\L	6	8gg\L	1ryy	1ryy	.	8g\L	.	8ee\L	.
16D\L	.	16ff\L	.	.	.	16f\L	.	8ff\J	.
16E\JJ	.	16gg\JJ	.	.	.	16g\JJ	.	.	.
8C\L	.	8ee\L	.	.	.	8e\L	.	4.cc\	.
16D\L	.	16ff\L	.	.	.	16f\L	.	.	.
16E\JJ	.	16gg\JJ	.	.	.	16g\JJ	.	.	.
!	!	!	!	!	!	!LO:LB:g=original	!	!	!
4.D\	.	4.aa\	.	.	.	4.a\	.	.	.
.	.	.	.	.	.	.	.	16b-\LL	.
.	.	.	.	.	.	.	.	16cc\JJ	.
!	!	!	!	!	!	!	!	!LO:LB:g=original	!
.	.	.	.	.	.	.	.	8a\L	-do
8C\	.	8gg\	.	.	.	8g\	-do	8cc\J	.
!LO:PB:g=original	!	!	!	!	!	!	!	!	!
=17	=17	=17	=17	=17	=17	=17	=17	=17	=17
4.D/	.	8ff\L	1ryy	1ryy	.	4f\	spi-	8dd\L	ſpi-
.	.	16gg\L	.	.	.	.	.	8cc\J	.
.	.	16aa\JJ	.	.	.	.	.	.	.
.	.	2bb-\	.	.	.	2g\	.	2b-\	.
16C/LL	.	.	.	.	.	.	.	.	.
16BB-/JJ	.	.	.	.	.	.	.	.	.
[<2C/	.	.	.	.	.	.	.	.	.
.	.	4aa\	.	.	.	8f\	-ri-	8a\	-ri-
.	.	.	.	.	.	8f\	-tum	8a\	-tum
=18	=18	=18	=18	=18	=18	=18	=18	=18	=18
2C/]	.	2gg\	1ryy	1ryy	.	4f\	me-	2g\	me-
.	.	.	.	.	.	4e\	.	.	.
4F\	.	4aa\	.	.	.	4f\	-um	4a\	-um
!	!	!	!	!	!	!LO:TX:a:t=P:w źródle następne takty skreślone; poprawki skryptora:problem	!	!	!
4r	.	4r	.	.	.	4r	.	4r	.
!	!	!	!	!	!	!LO:PB:g=original	!	!	!
=19	=19	=19	=19	=19	=19	=19	=19	=19	=19
!LO:TX:a:Bi:t=S.	!	!	!	!	!	!	!	!	!
8F\L	.	00r	1ryy	1ryy	.	00r	.	4.a\	Glo-
8E\	.	.	.	.	.	.	.	.	.
8F\	6	.	.	.	.	.	.	.	.
8D\J	.	.	.	.	.	.	.	16dd\	-ri-
.	.	.	.	.	.	.	.	16cc\	-a
8G\L	.	.	.	.	.	.	.	4b-\	Pa-
8G\	.	.	.	.	.	.	.	.	.
8A\	#	.	.	.	.	.	.	8a\	-tri
8A\J	.	.	.	.	.	.	.	8a\	(et)
=20	=20	=20	=20	=20	=20	=20	=20	=20	=20
8B-\L	7	.	1ryy	1ryy	.	.	.	(>4a\	Fi-
8B-\	.	.	.	.	.	.	.	.	.
8B-\	6	.	.	.	.	.	.	8g\)	.
8B-\J	.	.	.	.	.	.	.	8g\	-li-
8A\L	#	.	.	.	.	.	.	4a\	-o
8G\	.	.	.	.	.	.	.	.	.
8F\	6	.	.	.	.	.	.	8a\	(et)
8D\J	.	.	.	.	.	.	.	8d/	ſpi-
=21	=21	=21	=21	=21	=21	=21	=21	=21	=21
8G\L	.	.	1ryy	1ryy	.	.	.	4.b-\	-ri-
8F\	.	.	.	.	.	.	.	.	.
8E\	6	.	.	.	.	.	.	.	.
8C\J	.	.	.	.	.	.	.	16a\	-tu-
.	.	.	.	.	.	.	.	16g\	-i
.	.	.	.	.	.	.	.	16qqb-/	.
8F\L	.	.	.	.	.	.	.	16a\LL	ſan-
.	.	.	.	.	.	.	.	16g\J	.
8E\	.	.	.	.	.	.	.	[>8a\J	.
!	!	!	!	!	!	!	!	!LO:LB:g=original	!
8F\	.	.	.	.	.	.	.	16a\LL]	.
.	.	.	.	.	.	.	.	16f\	.
8D\J	.	.	.	.	.	.	.	16g\	.
.	.	.	.	.	.	.	.	16a\JJ	.
=22	=22	=22	=22	=22	=22	=22	=22	=22	=22
.	.	.	.	.	.	.	.	16qqa/	.
8E\L	6\	.	1ryy	1ryy	.	.	.	16g/LL	.
.	.	.	.	.	.	.	.	16f/J	.
8D\J	.	.	.	.	.	.	.	[<8g/J	.
8C#X/L	6	.	.	.	.	.	.	16g/LL]	.
.	.	.	.	.	.	.	.	16e/	.
8AA/J	.	.	.	.	.	.	.	16f/	.
.	.	.	.	.	.	.	.	16g/JJ	.
.	.	.	.	.	.	.	.	16qqg/	.
8D/L	.	.	.	.	.	.	.	16f/LL	.
.	.	.	.	.	.	.	.	16e/J	.
8DD/J	.	.	.	.	.	.	.	[<8f/J	.
8D\L	.	.	.	.	.	.	.	16f\LL]	.
.	.	.	.	.	.	.	.	16a\	.
8E\J	6	.	.	.	.	.	.	16g\	.
.	.	.	.	.	.	.	.	16b-\JJ	.
!LO:LB:g=original	!	!	!	!	!	!	!	!	!
=23	=23	=23	=23	=23	=23	=23	=23	=23	=23
8F\L	.	1r	1ryy	1ryy	.	1r	.	8a\L	.
8D\J	.	.	.	.	.	.	.	8dd\	.
!LO:TX:a:t=P:mixed beam:problem	!	!	!	!	!	!	!	!	!
8GG\L	.	.	.	.	.	.	.	8b-\	.
8G/J	.	.	.	.	.	.	.	8g\J	.
!LO:TX:a:t=P:mixed beam:problem	!	!	!	!	!	!	!	!	!
8A\L	4	.	.	.	.	.	.	4f/	.
8G\	.	.	.	.	.	.	.	.	.
8A\	#	.	.	.	.	.	.	4e/	.
8AA/J	.	.	.	.	.	.	.	.	.
=24	=24	=24	=24	=24	=24	=24	=24	=24	=24
4D\	.	4r	1ryy	1ryy	.	4r	.	4d/	-cto.
!LO:TX:a:Bi:t=T.	!	!	!	!	!	!	!	!	!
4F\	.	8ff\L	.	.	.	4a\	in	4cc\	In
.	.	8ff\J	.	.	.	.	.	.	.
!	!	!LO:LB:g=original	!	!	!	!	!	!	!
8B-\L	.	8ff\L	.	.	.	4.f\	ma-	4.dd\	ma-
8F\	.	8ff\	.	.	.	.	.	.	.
8B-\	.	8ff\	.	.	.	.	.	.	.
8A\J	.	8ff\J	.	.	.	8g\	-nus	8cc\	-nus
=25	=25	=25	=25	=25	=25	=25	=25	=25	=25
8G\L	.	8gg\L	1ryy	1ryy	.	8g\L	tu-	8b-\L	tu-
8F\	.	8cc\	.	.	.	8d\J	.	8a\J	.
8E\	.	8cc\	.	.	.	8e\L	-as	8g\	.
8D\J	.	8ff\J	.	.	.	8f\J	.	16a\LL	-as
.	.	.	.	.	.	.	.	16b-\JJ	.
8E\L	6	8gg\L	.	.	.	4g\	Do-	4cc\	Do-
8C\	.	16ff\L	.	.	.	.	.	.	.
.	.	16ee\JJ	.	.	.	.	.	.	.
8D\	.	8ff\L	.	.	.	8f\L	.	4b-\	.
8E\J	.	8gg\J	.	.	.	8g\J	.	.	.
!	!	!	!	!	!	!	!	!LO:LB:g=original	!
=26	=26	=26	=26	=26	=26	=26	=26	=26	=26
4F\	.	4aa\	1ryy	1ryy	.	4a\	.	8a\L	.
.	.	.	.	.	.	.	.	8bn\J	.
4E\	6	4gg\	.	.	.	4g\	.	2cc\	.
2D\	7	2ff\	.	.	.	4.f\	.	.	.
.	6\	.	.	.	.	.	.	8b\	.
.	.	.	.	.	.	8f\	-mi-	8b\	-mi-
=27	=27	=27	=27	=27	=27	=27	=27	=27	=27
4C/	.	4ee\	1ryy	1ryy	.	4g\	-ne	4cc\	-ne
4c\	.	4ee\	.	.	.	4g\	com-	4cc\	com-
4.A\	.	8cc\L	.	.	.	4.cc\	-men-	8cc\L	-men-
.	.	16dd\L	.	.	.	.	.	16dd\L	.
.	.	16ee\JJ	.	.	.	.	.	16ee\JJ	.
.	.	[>4ff\	.	.	.	.	.	[<4ff\	.
16G\LL	.	.	.	.	.	16b-\LL	.	.	.
16A\JJ	.	.	.	.	.	16cc\JJ	.	.	.
=28	=28	=28	=28	=28	=28	=28	=28	=28	=28
8F\L	.	8ff\L]	1ryy	1ryy	.	8a\L	.	8ff\L]	.
16E\L	.	16gg\L	.	.	.	16g\L	.	8cc\	.
16F\JJ	.	16aa\JJ	.	.	.	16a\JJ	.	.	.
8D\L	.	8ff\L	.	.	.	8f\L	.	8dd\	.
16E\L	6	16gg\L	.	.	.	16g\L	.	8cc\J	.
16F\JJ	.	16aa\JJ	.	.	.	16a\JJ	.	.	.
4.G\	.	4.bb-\	.	.	.	4.b-\	.	8b-\L	.
.	.	.	.	.	.	.	.	16a\L	.
.	.	.	.	.	.	.	.	16b-\JJ	.
.	.	.	.	.	.	.	.	8g\L	.
8F\	.	8aa\	.	.	.	8a\	.	16a\L	.
.	.	.	.	.	.	.	.	16b-\JJ	.
=29	=29	=29	=29	=29	=29	=29	=29	=29	=29
8E\L	6	8gg\L	1ryy	1ryy	.	8g\L	.	4.cc\	.
16D\L	.	16ff\L	.	.	.	16f\L	.	.	.
16E\JJ	.	16gg\JJ	.	.	.	16g\JJ	.	.	.
!LO:LB:g=original	!	!	!	!	!	!LO:LB:g=original	!	!	!
8C\L	.	8ee\L	.	.	.	8e\L	.	.	.
16D\L	6	16ff\L	.	.	.	16f\L	.	8b-\	-do
16E\JJ	.	16gg\JJ	.	.	.	16g\JJ	.	.	.
4.F\	.	4.aa\	.	.	.	4.a\	.	8a\L	ſpi-
.	.	.	.	.	.	.	.	16g\L	.
.	.	.	.	.	.	.	.	16a\JJ	.
.	.	.	.	.	.	.	.	8f\L	.
8E\	.	8gg\	.	.	.	8g\	-do	16g\L	.
.	.	.	.	.	.	.	.	16a\JJ	.
!	!	!LO:LB:g=original	!	!	!	!	!	!	!
=30	=30	=30	=30	=30	=30	=30	=30	=30	=30
4.D/	6 x	8ff\L	1ryy	1ryy	.	4.f\	Spi-	8b-\L	.
.	.	16gg\L	.	.	.	.	.	8f\J	.
.	.	16aa\JJ	.	.	.	.	.	.	.
.	.	2bb-\	.	.	.	.	.	2b-\	.
16C/LL	.	.	.	.	.	16e\	-ri-	.	.
16BB-/JJ	.	.	.	.	.	16d\	-tum	.	.
[<2C/	7 3	.	.	.	.	4e\	me-	.	.
.	6 4	4aa\	.	.	.	[>4f\	.	8a\	-ri-
.	.	.	.	.	.	.	.	8a\	-tum
=31	=31	=31	=31	=31	=31	=31	=31	=31	=31
2C/]	5 4	2gg\	1ryy	1ryy	.	4f\]	.	2g\	me-
.	x 3	.	.	.	.	4e\	.	.	.
2F\	.	2ff\	.	.	.	2f\	-um	2a\	-um
!	!	!	!	!	!	!LO:TX:b:Bi:t=PS. Sub umbra a larum tuarum \nprotege nos	!	!	!
!	!	!	!	!	!	!	!	!LO:TX:b:Bi:t=Custodi nos Domine ut pupillam oculi.\nPS. Sub umbra alarum tuarum protege nos	!
!	!	!LO:TX:a:t=P:w źródle ozdobna kreska końcowa:problem	!	!	!	!	!	!	!
==	==	==	==	==	==	==	==	==	==
*-	*-	*-	*-	*-	*-	*-	*-	*-	*-
!!title: @{OTL};
!!!RDF**kern: > = above
!!!RDF**kern: < = below
!!!EED: Wojciech Jakubiak-Danek
!!!EST: 2021-01-01
!!!URL-scan: http://repozytorium.nifc.pl/skany/pl-cz-nut--iii-882
!!!ONB-nifc: UWAGA: części Completorium: Cum invocarem, In te Domine speravi, Qui habitat, Ecce nunc benedicite, Te lucis ante terminum, In manus tuas, Nunc dimittis. Uwaga: niekompletne partie A, B, vl 1.
!!!AIN: 1 alto 1 bass 1 organ 2 violn 1 vox
!!!ENC: Marcin Jachim
!!!END: 2020-07-03
